X: 7
T: I'll Fly Away
C: music: Albert E. Brumley
R: hymn
Z: 2021 John Chambers <jc:trillian.mit.edu>
M: C
L: 1/4
K: D
%%continueall 0
"^Verse"[|\
"D"[f2d2] [d2A2] | [A2F2] [d2A2] | [fd][ec] [fd][ge] | [f2d2] [e2c2] | "G"[d4-B4-G4-] | [d2B2G2] [BG][BG] | "D"[A4F4] | z4 ||
w: 1.~Some glad morn-ing  when this life is o-ver I'll_ fly a-way
w: 2.~When the shad-ows of this life have grown*  I'll_ fly a-way
w: 3.~Oh how glad and hap-py  when we meet*       I'll_ fly a-way
w: 4.~Just a few more wear-y days and then*       I'll_ fly a-way
%
"D"[f2d2] [d2A2] | [A2F2] [d2A2] | [fd][ec] [fd][ge] | [f4d4] | [f4-d4A4] | "A7"[f2c2A2] [ecA][ecG] | "D"[d4A4F2] | z4 |]
w: 1.~To a home on God's ce-les-tial shore     I'll_ fly a-way.
w: 2.~Like a bird from pri-son bars have flown I'll_ fly a-way.
w: 3.~No more cold iron shack-les on my feet   I'll_ fly a-way
w: 4.~To a land where joys shall ne-ver end    I'll_ fly a-way
%
"=Chorus"[| \
"D"[a4-f4-d4-] | [a2f2d2] [fd][fd] | [a2f2][f2d2] | [e2c2] [d2A2] | "G"[d4-G4-] | [d2G2] [BG][BG] | "D"[A4F4] | z4 ||
w: I'll_ fly a-way oh glo-ry         I'll_ fly a-way.
%
"^(intro)"||\
"D"[A2F2] "G"[B2G2] | "D"[d2A2] [dA][ec] | [fd][ec] [fd][ge] | [f4d4] | [f4-d4A4-] | "A7"[f2c2A2] [ecA][ecG] | "D"[d4A4F4D4] | z4 |]
w: When I die ha-le-lu-jah by and by I'll_ fly a-way.

%%sep 2 1 500
%%sep 1 1 500

